icons/solid/location-marker.svg

<svg width="24" height="24" viewBox="0 0 24 24" fill="none" xmlns="http://www.w3.org/2000/svg">
<path fill-rule="evenodd" clip-rule="evenodd" d="M11.4739 21.8504C11.4742 21.8506 11.4745 21.8508 12 21L11.4739 21.8504ZM12 21L12.5255 21.8508C12.2034 22.0497 11.7959 22.0493 11.4739 21.8504L11.4709 21.8486L11.4648 21.8448L11.445 21.8323C11.4286 21.8219 11.4057 21.8073 11.3767 21.7885C11.3188 21.7509 11.2366 21.6965 11.1337 21.6259C10.9278 21.4847 10.6383 21.2782 10.2929 21.0099C9.60359 20.4746 8.68392 19.6875 7.76173 18.6782C5.93309 16.6767 4 13.6949 4 10C4 5.46096 7.59208 2 12 2C16.4079 2 20 5.46096 20 10C20 13.6949 18.0669 16.6767 16.2383 18.6782C15.3161 19.6875 14.3964 20.4746 13.7071 21.0099C13.3617 21.2782 13.0722 21.4847 12.8663 21.6259C12.7634 21.6965 12.6812 21.7509 12.6233 21.7885C12.5943 21.8073 12.5714 21.8219 12.555 21.8323L12.5352 21.8448L12.5291 21.8486L12.527 21.8499C12.5266 21.8501 12.5255 21.8508 12 21ZM9 10C9 8.34315 10.3431 7 12 7C13.6569 7 15 8.34315 15 10C15 11.6569 13.6569 13 12 13C10.3431 13 9 11.6569 9 10Z" fill="currentColor"/>
</svg>

<svg width="24" height="24" fill="none" xmlns="http://www.w3.org/2000/svg"><path fill-rule="evenodd" clip-rule="evenodd" d="M11.474 21.85L12 21l-.526.85zM12 21l.525.85c-.322.2-.73.2-1.051 0l-.003-.001-.006-.004-.02-.013a7.993 7.993 0 01-.311-.206 17.706 17.706 0 01-.841-.616 20.485 20.485 0 01-2.531-2.332C5.933 16.677 4 13.695 4 10c0-4.539 3.592-8 8-8 4.408 0 8 3.461 8 8 0 3.695-1.933 6.677-3.762 8.678a20.487 20.487 0 01-2.53 2.332 17.706 17.706 0 01-1.085.778 7.993 7.993 0 01-.068.044l-.02.013-.006.004h-.002c0 .001-.002.002-.527-.849zM9 10a3 3 0 116 0 3 3 0 01-6 0z" fill="currentColor"/></svg>
